projects/social-icons/blue/AppNet.svg

<?xml version="1.0" encoding="UTF-8" standalone="no"?>
<!-- Generator: Adobe Illustrator 16.0.0, SVG Export Plug-In . SVG Version: 6.00 Build 0)  -->

<svg
   xmlns:dc="http://purl.org/dc/elements/1.1/"
   xmlns:cc="http://creativecommons.org/ns#"
   xmlns:rdf="http://www.w3.org/1999/02/22-rdf-syntax-ns#"
   xmlns:svg="http://www.w3.org/2000/svg"
   xmlns="http://www.w3.org/2000/svg"
   xmlns:sodipodi="http://sodipodi.sourceforge.net/DTD/sodipodi-0.dtd"
   xmlns:inkscape="http://www.inkscape.org/namespaces/inkscape"
   version="1.1"
   id="Circle_1_"
   sodipodi:docname="AppNet.svg"
   inkscape:version="0.48.2 r9819"
   x="0px"
   y="0px"
   width="1000px"
   height="1000px"
   viewBox="0 0 1000 1000"
   enable-background="new 0 0 1000 1000"
   xml:space="preserve"><metadata
   id="metadata9"><rdf:RDF><cc:Work
       rdf:about=""><dc:format>image/svg+xml</dc:format><dc:type
         rdf:resource="http://purl.org/dc/dcmitype/StillImage" /></cc:Work></rdf:RDF></metadata><defs
   id="defs7" /><sodipodi:namedview
   pagecolor="#ffffff"
   bordercolor="#666666"
   borderopacity="1"
   objecttolerance="10"
   gridtolerance="10"
   guidetolerance="10"
   inkscape:pageopacity="0"
   inkscape:pageshadow="2"
   inkscape:window-width="778"
   inkscape:window-height="596"
   id="namedview5"
   showgrid="false"
   inkscape:zoom="0.3337544"
   inkscape:cx="406.7507"
   inkscape:cy="492.10186"
   inkscape:window-x="0"
   inkscape:window-y="0"
   inkscape:window-maximized="0"
   inkscape:current-layer="Circle_1_" />
<path
   d="M 500,0 C 223.85763,0 0,223.85763 0,500 c 0,276.14237 223.85763,500 500,500 276.14237,0 500,-223.85763 500,-500 C 1000,223.85763 776.14237,0 500,0 z m 219.15625,178.28125 c 7.8805,-0.0469 15.7635,0.0115 23.625,0.375 21.403,0.99 27.6075,9.27425 21.6875,29.65625 -31.971,110.076 -68.57575,218.56775 -115.34375,323.34375 -7.907,17.716 -11.2815,35.05875 -2.6875,52.46875 13.403,27.153 27.3455,54.157 43.0625,80 5.181,8.518 15.804,14.77825 25.25,19.40625 19.14,9.377 35.9675,3.844 46.4375,-14.5 7.448,-13.051 17.795,-18.74825 32.625,-18.15625 13.766,0.551 27.56575,-0.136 41.34375,0.25 14.122,0.393 22.90025,8.803 21.65625,22.375 -4.904,53.595 -39.572,108.93675 -99.25,122.21875 -46.436,10.335 -87.46725,-3.73175 -119.78125,-37.21875 -18.517,-19.184 -32.146,-43.143 -47.375,-65.375 -5.209,-7.603 -8.5555,-16.47675 -14.4375,-28.09375 -7.92,10.217 -14.086,18.278 -20.375,26.25 -35.408,44.889 -76.822,82.29675 -132.875,98.84375 C 334.76375,816.096 245.207,779.667 195.375,699 169.312,656.809 156.75675,610.30725 150.09375,561.53125 c -8.399,-61.497 -6.79675,-122.519 6.53125,-183 13.312,-60.406 37.88925,-115.53175 87.28125,-155.21875 83.829,-67.357 198.695,-60.8755 270.5,33.9375 27.876,36.808 47.877,77.77775 64.75,120.46875 1.442,3.65 2.87,7.309 4.5,10.875 0.312,0.684 1.5725,0.95275 4.3125,2.46875 2.098,-4.778 4.4705,-9.27625 6.0625,-14.03125 18.416,-54.968 36.75825,-109.95475 55.03125,-164.96875 10.193,-30.693 14.0815,-33.59375 46.4375,-33.59375 7.8775,0 15.77575,-0.14063 23.65625,-0.1875 z m -353,111.78125 c -11.17252,0.15467 -22.8885,1.998 -35.21875,5.40625 -42.512,11.751 -68.3885,42.97975 -79.0625,84.21875 -19.65888,63.58005 -16.69204,129.02045 -8.59375,189.375 1.64,12.038 5.3995,23.9545 9.5625,35.4375 31.168,85.981 122.595,109.556 191.25,49.375 37.358,-32.747 61.7715,-74.852 83.6875,-118.5 2.451,-4.882 1.29025,-12.56975 -0.34375,-18.34375 -6.686,-23.596 -13.80825,-47.097 -21.53125,-70.375 -12.868,-38.787 -27.172,-77.07575 -52.5,-109.84375 -25.1775,-32.574 -53.73245,-47.21402 -87.25,-46.75 z"
   id="Circle"
   style="fill:#009bcd;fill-opacity:1"
   inkscape:connector-curvature="0"
   sodipodi:nodetypes="sssssscsccccccccscccccscssscccccsssscccscccss" />

</svg>

<?xml version="1.0" encoding="UTF-8" standalone="no"?>
<!-- Generator: Adobe Illustrator 16.0.0, SVG Export Plug-In . SVG Version: 6.00 Build 0)  -->

<svg
   xmlns:dc="http://purl.org/dc/elements/1.1/"
   xmlns:cc="http://creativecommons.org/ns#"
   xmlns:rdf="http://www.w3.org/1999/02/22-rdf-syntax-ns#"
   xmlns:svg="http://www.w3.org/2000/svg"
   xmlns="http://www.w3.org/2000/svg"
   xmlns:sodipodi="http://sodipodi.sourceforge.net/DTD/sodipodi-0.dtd"
   xmlns:inkscape="http://www.inkscape.org/namespaces/inkscape"
   version="1.1"
   id="Circle_1_"
   sodipodi:docname="AppNet.svg"
   inkscape:version="0.48.2 r9819"
   x="0px"
   y="0px"
   width="1000px"
   height="1000px"
   viewBox="0 0 1000 1000"
   enable-background="new 0 0 1000 1000"
   xml:space="preserve"><metadata
   id="metadata9"><rdf:RDF><cc:Work
       rdf:about=""><dc:format>image/svg+xml</dc:format><dc:type
         rdf:resource="http://purl.org/dc/dcmitype/StillImage" /></cc:Work></rdf:RDF></metadata><defs
   id="defs7" /><sodipodi:namedview
   pagecolor="#ffffff"
   bordercolor="#666666"
   borderopacity="1"
   objecttolerance="10"
   gridtolerance="10"
   guidetolerance="10"
   inkscape:pageopacity="0"
   inkscape:pageshadow="2"
   inkscape:window-width="778"
   inkscape:window-height="596"
   id="namedview5"
   showgrid="false"
   inkscape:zoom="0.236"
   inkscape:cx="480.45467"
   inkscape:cy="488.83034"
   inkscape:window-x="0"
   inkscape:window-y="0"
   inkscape:window-maximized="0"
   inkscape:current-layer="Circle_1_" />
<path
   d="M 500 0 C 223.85763 0 0 223.85763 0 500 C 3.7895613e-14 776.14237 223.85763 1000 500 1000 C 776.14237 1000 1000 776.14237 1000 500 C 1000 223.85763 776.14237 -1.1368684e-13 500 0 z M 719.15625 178.28125 C 727.03675 178.23438 734.91975 178.29275 742.78125 178.65625 C 764.18425 179.64625 770.38875 187.9305 764.46875 208.3125 C 732.49775 318.3885 695.893 426.88025 649.125 531.65625 C 641.218 549.37225 637.8435 566.715 646.4375 584.125 C 659.8405 611.278 673.783 638.282 689.5 664.125 C 694.681 672.643 705.304 678.90325 714.75 683.53125 C 733.89 692.90825 750.7175 687.37525 761.1875 669.03125 C 768.6355 655.98025 778.9825 650.283 793.8125 650.875 C 807.5785 651.426 821.37825 650.739 835.15625 651.125 C 849.27825 651.518 858.0565 659.928 856.8125 673.5 C 851.9085 727.095 817.2405 782.43675 757.5625 795.71875 C 711.1265 806.05375 670.09525 791.987 637.78125 758.5 C 619.26425 739.316 605.63525 715.357 590.40625 693.125 C 585.19725 685.522 581.85075 676.64825 575.96875 665.03125 C 568.04875 675.24825 561.88275 683.30925 555.59375 691.28125 C 520.18575 736.17025 478.77175 773.578 422.71875 790.125 C 334.76375 816.096 245.207 779.667 195.375 699 C 169.312 656.809 156.75675 610.30725 150.09375 561.53125 C 141.69475 500.03425 143.297 439.01225 156.625 378.53125 C 169.937 318.12525 194.51425 262.9995 243.90625 223.3125 C 327.73525 155.9555 442.60125 162.437 514.40625 257.25 C 542.28225 294.058 562.28325 335.02775 579.15625 377.71875 C 580.59825 381.36875 582.02625 385.02775 583.65625 388.59375 C 583.96825 389.27775 585.22875 389.5465 587.96875 391.0625 C 590.06675 386.2845 592.43925 381.78625 594.03125 377.03125 C 612.44725 322.06325 630.7895 267.0765 649.0625 212.0625 C 659.2555 181.3695 663.144 178.46875 695.5 178.46875 C 703.3775 178.46875 711.27575 178.32812 719.15625 178.28125 z M 366.15625 290.0625 C 354.98373 290.21717 343.26775 292.0605 330.9375 295.46875 C 288.4255 307.21975 262.549 338.4485 251.875 379.6875 C 242.611 415.4815 238.7105 452.651 233.9375 480.5 C 237.6075 516.454 239.71125 542.8645 243.28125 569.0625 C 244.92125 581.1005 248.68075 593.017 252.84375 604.5 C 284.01175 690.481 375.43875 714.056 444.09375 653.875 C 481.45175 621.128 505.86525 579.023 527.78125 535.375 C 530.23225 530.493 529.0715 522.80525 527.4375 517.03125 C 520.7515 493.43525 513.62925 469.93425 505.90625 446.65625 C 493.03825 407.86925 478.73425 369.5805 453.40625 336.8125 C 428.22875 304.2385 399.6738 289.59848 366.15625 290.0625 z "
   id="Circle"
   style="fill:#009bcd;fill-opacity:1" />

</svg>
